z_dist/img/icons/web3/portfolio.svg

<svg width="64" height="64" viewBox="0 0 64 64" fill="none" xmlns="http://www.w3.org/2000/svg">
<path d="M25.7142 36.5713L10.7428 35.6456C9.65696 35.5862 8.62786 35.1416 7.84028 34.3918C7.0527 33.6419 6.55823 32.6358 6.44567 31.5542L5.10853 18.7656C5.04101 18.1262 5.10913 17.4798 5.30843 16.8685C5.50773 16.2572 5.83374 15.6948 6.26517 15.2181C6.69659 14.7414 7.22372 14.361 7.81214 14.1019C8.40055 13.8427 9.03701 13.7106 9.67996 13.7142H54.3542C54.9972 13.7106 55.6336 13.8427 56.2221 14.1019C56.8105 14.361 57.3376 14.7414 57.769 15.2181C58.2005 15.6948 58.5265 16.2572 58.7258 16.8685C58.9251 17.4798 58.9932 18.1262 58.9257 18.7656L57.5542 31.5542C57.4417 32.6358 56.9472 33.6419 56.1596 34.3918C55.3721 35.1416 54.3429 35.5862 53.2571 35.6456L38.2857 36.5713" stroke="#111111" stroke-width="2"/>
<path d="M54.8571 35.3371V50.2857C54.8571 51.4981 54.3755 52.6608 53.5182 53.5181C52.6609 54.3755 51.4981 54.8571 50.2857 54.8571H13.7143C12.5018 54.8571 11.3391 54.3755 10.4818 53.5181C9.62445 52.6608 9.14282 51.4981 9.14282 50.2857V35.2571" stroke="#111111" stroke-width="2"/>
<path d="M26.2856 13.7143V11.4285C26.2856 10.8223 26.5265 10.2409 26.9551 9.81229C27.3838 9.38364 27.9651 9.14282 28.5714 9.14282H35.4285C36.0347 9.14282 36.6161 9.38364 37.0447 9.81229C37.4734 10.2409 37.7142 10.8223 37.7142 11.4285V13.7143" stroke="#111111" stroke-width="2"/>
<path d="M35.1429 33.4285H28.8572C27.1215 33.4285 25.7144 34.8356 25.7144 36.5713C25.7144 38.3071 27.1215 39.7142 28.8572 39.7142H35.1429C36.8787 39.7142 38.2858 38.3071 38.2858 36.5713C38.2858 34.8356 36.8787 33.4285 35.1429 33.4285Z" stroke="#111111" stroke-width="2"/>
</svg>

<svg width="64" height="64" fill="none" xmlns="http://www.w3.org/2000/svg"><path d="M25.714 36.571l-14.971-.925a4.572 4.572 0 01-4.297-4.092L5.109 18.766a4.571 4.571 0 014.571-5.052h44.674a4.57 4.57 0 014.572 5.052l-1.372 12.788a4.571 4.571 0 01-4.297 4.092l-14.971.925" stroke="#111" stroke-width="2"/><path d="M54.857 35.337v14.949a4.571 4.571 0 01-4.571 4.571H13.714a4.571 4.571 0 01-4.571-4.571V35.257m17.143-21.543v-2.286a2.286 2.286 0 012.285-2.285h6.857a2.286 2.286 0 012.286 2.285v2.286" stroke="#111" stroke-width="2"/><path d="M35.143 33.428h-6.286a3.143 3.143 0 000 6.286h6.286a3.143 3.143 0 100-6.285z" stroke="#111" stroke-width="2"/></svg>
